assets/images/Dark-logo.svg

<svg width="142" height="47" viewBox="0 0 142 47" fill="none" xmlns="http://www.w3.org/2000/svg">
    <mask id="mask0_645_31489" style="mask-type:luminance" maskUnits="userSpaceOnUse" x="3" y="4" width="31" height="39">
    <path d="M34 4.25H3V43H34V4.25Z" fill="white"/>
    </mask>
    <g mask="url(#mask0_645_31489)">
    <path d="M18.5015 34.1627V43.0002L34 34.0482V25.2118L18.5015 34.1627Z" fill="#FF4200"/>
    <path d="M25.4393 17.0946L33.0865 12.6758L18.5015 4.25V13.0873L25.4393 17.0946Z" fill="#111E21"/>
    <path d="M12.4779 19.7333V28.5734L18.5011 32.0517V23.2155L12.4779 19.7333Z" fill="#FF4200"/>
    <path d="M34 14.2598L18.5015 23.2156V32.0517L34 23.0997V14.2598Z" fill="#FF4200"/>
    <path d="M3.92285 12.6707L11.5242 17.1153L18.5011 13.0873V4.25L3.92285 12.6707Z" fill="#111E21"/>
    <path d="M10.6498 29.6295V18.6732L3 14.2558V34.048L18.5011 43V34.1625L10.6498 29.6295Z" fill="#FF4200"/>
    </g>
    <path d="M38.7439 33V15.9555H44.5634C46.56 15.9555 48.1995 16.3126 49.4819 17.0269C50.7805 17.7249 51.7383 18.7151 52.3551 19.9975C52.9882 21.2636 53.3047 22.7571 53.3047 24.4777C53.3047 26.1984 52.9882 27.7 52.3551 28.9824C51.7383 30.2485 50.7805 31.2387 49.4819 31.953C48.1995 32.651 46.56 33 44.5634 33H38.7439ZM41.8606 30.3216H44.4173C45.8457 30.3216 46.9739 30.0943 47.8018 29.6398C48.6297 29.169 49.2222 28.5035 49.5793 27.6432C49.9364 26.7666 50.115 25.7114 50.115 24.4777C50.115 23.2603 49.9364 22.2133 49.5793 21.3367C49.2222 20.4601 48.6297 19.7865 47.8018 19.3157C46.9739 18.8449 45.8457 18.6096 44.4173 18.6096H41.8606V30.3216ZM61.3628 33.2922C60.1454 33.2922 59.0659 33.0325 58.1244 32.513C57.1829 31.9936 56.4443 31.2631 55.9086 30.3216C55.3729 29.3801 55.1051 28.2925 55.1051 27.0588C55.1051 25.8088 55.3648 24.6969 55.8842 23.7229C56.4199 22.749 57.1504 21.9941 58.0757 21.4584C59.0172 20.9065 60.121 20.6306 61.3872 20.6306C62.5722 20.6306 63.6192 20.8903 64.5282 21.4097C65.4373 21.9292 66.1434 22.6434 66.6466 23.5525C67.1661 24.4453 67.4258 25.4436 67.4258 26.5474C67.4258 26.726 67.4177 26.9127 67.4015 27.1075C67.4015 27.3023 67.3933 27.5052 67.3771 27.7162H58.1974C58.2624 28.6577 58.587 29.3963 59.1714 29.932C59.772 30.4677 60.4944 30.7355 61.3385 30.7355C61.9716 30.7355 62.4991 30.5975 62.9212 30.3216C63.3595 30.0294 63.6841 29.656 63.8952 29.2015H67.0606C66.8333 29.9645 66.4518 30.6625 65.9162 31.2956C65.3967 31.9124 64.7474 32.3994 63.9682 32.7565C63.2053 33.1136 62.3368 33.2922 61.3628 33.2922ZM61.3872 23.1629C60.6242 23.1629 59.9506 23.382 59.3662 23.8203C58.7818 24.2424 58.4085 24.8917 58.2461 25.7683H64.2604C64.2117 24.9729 63.9195 24.3398 63.3838 23.869C62.8481 23.3983 62.1826 23.1629 61.3872 23.1629ZM69.5602 33V15.4685H72.6769V33H69.5602ZM77.0546 19.0479C76.4865 19.0479 76.0157 18.8774 75.6424 18.5365C75.2852 18.1956 75.1067 17.7655 75.1067 17.246C75.1067 16.7266 75.2852 16.3045 75.6424 15.9798C76.0157 15.639 76.4865 15.4685 77.0546 15.4685C77.6228 15.4685 78.0854 15.639 78.4425 15.9798C78.8159 16.3045 79.0026 16.7266 79.0026 17.246C79.0026 17.7655 78.8159 18.1956 78.4425 18.5365C78.0854 18.8774 77.6228 19.0479 77.0546 19.0479ZM75.4963 33V20.9228H78.613V33H75.4963ZM84.6419 33L80.2103 20.9228H83.4731L86.5411 30.0537L89.6091 20.9228H92.872L88.416 33H84.6419ZM99.6245 33.2922C98.407 33.2922 97.3276 33.0325 96.386 32.513C95.4445 31.9936 94.7059 31.2631 94.1703 30.3216C93.6346 29.3801 93.3667 28.2925 93.3667 27.0588C93.3667 25.8088 93.6265 24.6969 94.1459 23.7229C94.6816 22.749 95.4121 21.9941 96.3373 21.4584C97.2789 20.9065 98.3827 20.6306 99.6489 20.6306C100.834 20.6306 101.881 20.8903 102.79 21.4097C103.699 21.9292 104.405 22.6434 104.908 23.5525C105.428 24.4453 105.687 25.4436 105.687 26.5474C105.687 26.726 105.679 26.9127 105.663 27.1075C105.663 27.3023 105.655 27.5052 105.639 27.7162H96.4591C96.524 28.6577 96.8487 29.3963 97.4331 29.932C98.0337 30.4677 98.756 30.7355 99.6002 30.7355C100.233 30.7355 100.761 30.5975 101.183 30.3216C101.621 30.0294 101.946 29.656 102.157 29.2015H105.322C105.095 29.9645 104.714 30.6625 104.178 31.2956C103.658 31.9124 103.009 32.3994 102.23 32.7565C101.467 33.1136 100.598 33.2922 99.6245 33.2922ZM99.6489 23.1629C98.8859 23.1629 98.2122 23.382 97.6279 23.8203C97.0435 24.2424 96.6701 24.8917 96.5078 25.7683H102.522C102.473 24.9729 102.181 24.3398 101.645 23.869C101.11 23.3983 100.444 23.1629 99.6489 23.1629ZM107.822 33V20.9228H110.598L110.89 23.1872C111.328 22.4081 111.921 21.7912 112.667 21.3367C113.43 20.8659 114.323 20.6306 115.346 20.6306V23.9177H114.469C113.787 23.9177 113.179 24.0232 112.643 24.2343C112.107 24.4453 111.685 24.8105 111.377 25.33C111.085 25.8494 110.939 26.5718 110.939 27.4971V33H107.822ZM122.643 33.2922C121.426 33.2922 120.346 33.0325 119.405 32.513C118.463 31.9936 117.725 31.2631 117.189 30.3216C116.653 29.3801 116.385 28.2925 116.385 27.0588C116.385 25.8088 116.645 24.6969 117.165 23.7229C117.7 22.749 118.431 21.9941 119.356 21.4584C120.297 20.9065 121.401 20.6306 122.667 20.6306C123.852 20.6306 124.9 20.8903 125.809 21.4097C126.718 21.9292 127.424 22.6434 127.927 23.5525C128.446 24.4453 128.706 25.4436 128.706 26.5474C128.706 26.726 128.698 26.9127 128.682 27.1075C128.682 27.3023 128.674 27.5052 128.657 27.7162H119.478C119.543 28.6577 119.867 29.3963 120.452 29.932C121.052 30.4677 121.775 30.7355 122.619 30.7355C123.252 30.7355 123.779 30.5975 124.201 30.3216C124.64 30.0294 124.964 29.656 125.175 29.2015H128.341C128.114 29.9645 127.732 30.6625 127.196 31.2956C126.677 31.9124 126.028 32.3994 125.249 32.7565C124.486 33.1136 123.617 33.2922 122.643 33.2922ZM122.667 23.1629C121.905 23.1629 121.231 23.382 120.646 23.8203C120.062 24.2424 119.689 24.8917 119.526 25.7683H125.541C125.492 24.9729 125.2 24.3398 124.664 23.869C124.128 23.3983 123.463 23.1629 122.667 23.1629ZM130.84 33V20.9228H133.616L133.908 23.1872C134.347 22.4081 134.939 21.7912 135.686 21.3367C136.449 20.8659 137.342 20.6306 138.364 20.6306V23.9177H137.488C136.806 23.9177 136.197 24.0232 135.662 24.2343C135.126 24.4453 134.704 24.8105 134.395 25.33C134.103 25.8494 133.957 26.5718 133.957 27.4971V33H130.84Z" fill="#111E21"/>
    </svg>

<svg xmlns="http://www.w3.org/2000/svg" width="142" height="47" fill="none"><mask id="a" width="31" height="39" x="3" y="4" maskUnits="userSpaceOnUse" style="mask-type:luminance"><path fill="#fff" d="M34 4.25H3V43h31V4.25Z"/></mask><g mask="url(#a)"><path fill="#FF4200" d="M18.502 34.163V43L34 34.048v-8.836l-15.498 8.95Z"/><path fill="#111E21" d="m25.44 17.095 7.646-4.42L18.503 4.25v8.837l6.937 4.008Z"/><path fill="#FF4200" d="M12.478 19.733v8.84l6.023 3.479v-8.837l-6.023-3.482ZM34 14.26l-15.498 8.956v8.836L34 23.1v-8.84Z"/><path fill="#111E21" d="m3.923 12.67 7.601 4.445 6.977-4.028V4.25L3.923 12.67Z"/><path fill="#FF4200" d="M10.65 29.63V18.672L3 14.256v19.792L18.501 43v-8.837L10.65 29.63Z"/></g><path fill="#111E21" d="M38.744 33V15.956h5.82c1.996 0 3.636.357 4.918 1.07 1.299.699 2.256 1.69 2.873 2.971.633 1.267.95 2.76.95 4.48 0 1.721-.317 3.223-.95 4.505-.617 1.267-1.574 2.257-2.873 2.971C48.2 32.651 46.56 33 44.563 33h-5.82Zm3.117-2.678h2.556c1.429 0 2.557-.228 3.385-.682a4.015 4.015 0 0 0 1.777-1.997c.357-.876.536-1.932.536-3.165 0-1.218-.179-2.265-.536-3.141a4.002 4.002 0 0 0-1.777-2.021c-.828-.471-1.956-.706-3.385-.706h-2.556v11.712Zm19.502 2.97c-1.218 0-2.297-.26-3.239-.779a5.64 5.64 0 0 1-2.215-2.191c-.536-.942-.804-2.03-.804-3.263 0-1.25.26-2.362.78-3.336a5.77 5.77 0 0 1 2.19-2.265c.942-.551 2.046-.827 3.312-.827 1.185 0 2.232.26 3.141.779a5.485 5.485 0 0 1 2.119 2.142c.52.893.779 1.892.779 2.995 0 .179-.008.366-.025.56 0 .195-.008.398-.024.61h-9.18c.065.94.39 1.68.974 2.215.601.536 1.323.803 2.168.803.633 0 1.16-.137 1.582-.413.438-.293.763-.666.974-1.12h3.166a5.765 5.765 0 0 1-1.145 2.094 5.503 5.503 0 0 1-1.948 1.46c-.763.358-1.631.536-2.605.536Zm.024-10.13c-.763 0-1.436.22-2.02.658-.585.422-.959 1.072-1.12 1.948h6.013c-.048-.795-.34-1.428-.876-1.899-.536-.47-1.201-.706-1.997-.706ZM69.56 33V15.468h3.117V33H69.56Zm7.495-13.952c-.569 0-1.04-.17-1.413-.511-.357-.341-.535-.771-.535-1.291 0-.52.178-.941.535-1.266.374-.341.845-.511 1.413-.511.568 0 1.03.17 1.387.51.374.326.56.748.56 1.267 0 .52-.186.95-.56 1.29-.357.341-.82.512-1.387.512ZM75.496 33V20.923h3.117V33h-3.117Zm9.146 0L80.21 20.923h3.263l3.068 9.13 3.068-9.13h3.263L88.416 33h-3.774Zm14.983.292c-1.218 0-2.297-.26-3.239-.779a5.638 5.638 0 0 1-2.216-2.191c-.535-.942-.803-2.03-.803-3.263 0-1.25.26-2.362.779-3.336a5.77 5.77 0 0 1 2.191-2.265c.942-.551 2.046-.827 3.312-.827 1.185 0 2.232.26 3.141.779a5.483 5.483 0 0 1 2.118 2.142c.52.893.779 1.892.779 2.995 0 .179-.008.366-.024.56 0 .195-.008.398-.024.61h-9.18c.065.94.39 1.68.974 2.215.6.536 1.323.803 2.167.803.633 0 1.161-.137 1.583-.413.438-.293.763-.666.974-1.12h3.165a5.754 5.754 0 0 1-1.144 2.094 5.509 5.509 0 0 1-1.948 1.46c-.763.358-1.632.536-2.606.536Zm.024-10.13c-.763 0-1.437.22-2.021.658-.585.422-.958 1.072-1.12 1.948h6.014c-.049-.795-.341-1.428-.877-1.899-.535-.47-1.201-.706-1.996-.706ZM107.822 33V20.923h2.776l.292 2.264a4.992 4.992 0 0 1 1.777-1.85c.763-.471 1.656-.706 2.679-.706v3.287h-.877c-.682 0-1.29.105-1.826.316a2.514 2.514 0 0 0-1.266 1.096c-.292.52-.438 1.242-.438 2.167V33h-3.117Zm14.821.292c-1.217 0-2.297-.26-3.238-.779a5.638 5.638 0 0 1-2.216-2.191c-.536-.942-.804-2.03-.804-3.263 0-1.25.26-2.362.78-3.336a5.766 5.766 0 0 1 2.191-2.265c.941-.551 2.045-.827 3.311-.827 1.185 0 2.233.26 3.142.779a5.483 5.483 0 0 1 2.118 2.142c.519.893.779 1.892.779 2.995 0 .179-.008.366-.024.56 0 .195-.008.398-.025.61h-9.179c.065.94.389 1.68.974 2.215.6.536 1.323.803 2.167.803.633 0 1.16-.137 1.582-.413.439-.293.763-.666.974-1.12h3.166a5.756 5.756 0 0 1-1.145 2.094 5.496 5.496 0 0 1-1.947 1.46c-.763.358-1.632.536-2.606.536Zm.024-10.13a3.28 3.28 0 0 0-2.021.658c-.584.422-.957 1.072-1.12 1.948h6.015c-.049-.795-.341-1.428-.877-1.899-.536-.47-1.201-.706-1.997-.706ZM130.84 33V20.923h2.776l.292 2.264a4.995 4.995 0 0 1 1.778-1.85c.763-.471 1.656-.706 2.678-.706v3.287h-.876c-.682 0-1.291.105-1.826.316a2.52 2.52 0 0 0-1.267 1.096c-.292.52-.438 1.242-.438 2.167V33h-3.117Z"/></svg>
